X:8
T: Maltese Branle
M:C|
L:1/4
K:F
V:1
|: B A B c d2 d2 c2 B2 A2 G F G2 G2 F4 :|
|: B A B c d2 e2 c2 d2 e4 | c d e2 d4 c d e2 d2 |
c B A G B A B4 :|
V:2
K:F bass
L:1/2
%%MIDI transpose -24
|: g2 G2 F2 f2 c2 f2 :|
|: g2 G2 c2 c'2 c2 g2 c2 g2 f2 _B2 :|
